X:18598
T:West Clare Railway
M:4/4
L:1/8
C:Junior Crehan
S:Mick O'Brien; posted to Ir-Trad by Juergen Gier, 8/97
K:F#Min
B,|CEFG A2FG|AGAB AFEB,|CEFG AGAB|1cABc AFFE\
:|2cABc AFFc|:fecB AGAc|fecB AFFc|fecB AGAc|e^def \
ecBc|fecB AGAc|fecB AFFe|c~f3 ecBG|ABcB AFFE||


